src/pos-icons/application.svg

<svg height="24" viewBox="0 0 24 24" width="24" xmlns="http://www.w3.org/2000/svg"><path d="m19 4c1.11 0 2 .9 2 2v12a2 2 0 0 1 -2 2h-14c-1.11 0-2-.9-2-2v-12a2 2 0 0 1 2-2zm0 14v-10h-14v10z"/></svg>

<?xml version="1.0" encoding="UTF-8"?><!DOCTYPE svg PUBLIC "-//W3C//DTD SVG 1.1//EN" "http://www.w3.org/Graphics/SVG/1.1/DTD/svg11.dtd"><svg xmlns="http://www.w3.org/2000/svg" xmlns:xlink="http://www.w3.org/1999/xlink" version="1.1" id="mdi-application" width="24" height="24" viewBox="0 0 24 24"><path d="M19,4C20.11,4 21,4.9 21,6V18A2,2 0 0,1 19,20H5C3.89,20 3,19.1 3,18V6A2,2 0 0,1 5,4H19M19,18V8H5V18H19Z" /></svg>
